X:410
T:Johnny McIljohn's No.2
D:Boys of the Lough, Welcoming Paddy Home
Z:Nigel Gatherer
M:4/4
L:1/8
K:G
G2 GF GBdB | G2 BG A2 GE | G2 GF GABd | egdB AcBA :|
GB B2 GBdB | GBdB  A2 GE | GB B2 GBdB | egdB A2 BA |
GB B2 GBdB | GBdB  A2 GE | G2 GF GABd | egdB AcBA |]
<end>
<start>
